Adwaita++/emblems/16/emblem-information.svg

<svg fill="none" height="16" viewBox="0 0 16 16" width="16" xmlns="http://www.w3.org/2000/svg">
  <path d="m13.6 1h-11.2c-.7732 0-1.4.6268-1.4 1.4v11.2c0 .7732.6268 1.4 1.4 1.4h11.2c.7732 0 1.4-.6268 1.4-1.4v-11.2c0-.7732-.6268-1.4-1.4-1.4z" fill="#9a9996"/>
  <path d="m9.17693 4.17876c0 .16407-.03238.31735-.09715.45984-.06045.14249-.14465.2677-.25259.37565-.10794.10363-.23532.18782-.38212.25259-.14249.06045-.29577.09067-.45985.09067s-.31952-.03022-.46632-.09067c-.14249-.06477-.2677-.14896-.37565-.25259-.10362-.10795-.18782-.23316-.25259-.37565-.06045-.14249-.09067-.29577-.09067-.45984 0-.15976.03022-.31088.09067-.45337.06477-.14681.14897-.27202.25259-.37565.10795-.10794.23316-.19214.37565-.25259.1468-.06477.30224-.09715.46632-.09715s.31736.03238.45985.09715c.1468.06045.27418.14465.38212.25259.10794.10363.19214.22884.25259.37565.06477.14249.09715.29361.09715.45337zm-.3044 8.82124h-1.78109v-6.93653h1.78109z" fill="#f6f5f4"/>
</svg>

<svg xmlns="http://www.w3.org/2000/svg" fill="none" width="16" height="16" viewBox="0 0 16 16">
 <path fill="url(#paint0_linear)" d="M13.6 1H2.4C1.6268 1 1 1.6268 1 2.4V13.6C1 14.3732 1.6268 15 2.4 15H13.6C14.3732 15 15 14.3732 15 13.6V2.4C15 1.6268 14.3732 1 13.6 1Z"/>
 <path fill="url(#paint1_linear)" d="M9.17693 4.17876C9.17693 4.34283 9.14455 4.49611 9.07978 4.6386C9.01933 4.78109 8.93513 4.9063 8.82719 5.01425C8.71925 5.11788 8.59187 5.20207 8.44507 5.26684C8.30258 5.32729 8.1493 5.35751 7.98522 5.35751C7.82114 5.35751 7.6657 5.32729 7.5189 5.26684C7.37641 5.20207 7.2512 5.11788 7.14325 5.01425C7.03963 4.9063 6.95543 4.78109 6.89066 4.6386C6.83021 4.49611 6.79999 4.34283 6.79999 4.17876C6.79999 4.019 6.83021 3.86788 6.89066 3.72539C6.95543 3.57858 7.03963 3.45337 7.14325 3.34974C7.2512 3.2418 7.37641 3.1576 7.5189 3.09715C7.6657 3.03238 7.82114 3 7.98522 3C8.1493 3 8.30258 3.03238 8.44507 3.09715C8.59187 3.1576 8.71925 3.2418 8.82719 3.34974C8.93513 3.45337 9.01933 3.57858 9.07978 3.72539C9.14455 3.86788 9.17693 4.019 9.17693 4.17876ZM8.87253 13H7.09144V6.06347H8.87253V13Z"/>
 <defs>
  <linearGradient id="paint0_linear" x1="1" x2="15" y1="8" y2="8" gradientUnits="userSpaceOnUse">
   <stop stop-color="#9A9996"/>
  </linearGradient>
  <linearGradient id="paint1_linear" x1="6.8" x2="9.177" y1="8" y2="8" gradientUnits="userSpaceOnUse">
   <stop stop-color="#F6F5F4"/>
  </linearGradient>
 </defs>
</svg>
